X: 35
T: Scheldewals
C: Ward Dhoore
M: 4/4
L: 1/8
K: G
"G"B4 B2| B2 A2 G2 | "C"DE c2 BA | "G"D6- | D2 zDEF| "Em"FG3 G2| 
"D"F2-F3 D |1 "G"B2 BA GD | "C"DE-E4- | E6 :||2 "G"B2 BA Bd | "C"de-e4- | e4 ef ||
"C"f g4 g | .g2 .e2 .d2 | "G"B2 BA Bc | B6 |"Bm"d3 d3 |d3 c BA | "D"A6 | DF GA ef |
"C"f g4 g | .g2 .e2 .d2 | "G"B2 BA Bc | B6 | "Bm"d3 d3 |d3 f3 | "C"e6- | e4 AB | "Am"c4 c2 | c2 B2 G2 | "Dsus4"G6 | "D"F6 |] 

